icons/default/Gaming.svg

<path
	d="M9.4959 16.8571V16.3571H9.2216L9.07421 16.5885L9.4959 16.8571ZM14.5037 16.8571L14.9254 16.5884L14.778 16.3571H14.5037V16.8571ZM12 7.57143V7.07143H11.5V7.57143H12ZM16.9677 7.57143V8.07143H17.4677V7.57143H16.9677ZM16.9677 5.07143H17.4677V4.57143H16.9677V5.07143ZM13.4194 5.07143H12.9194V5.57143H13.4194V5.07143ZM18.3871 9.21429H5.6129V10.2143H18.3871V9.21429ZM5.6129 9.21429C2.78597 9.21429 0.5 11.5198 0.5 14.3571H1.5C1.5 12.0659 3.34435 10.2143 5.6129 10.2143V9.21429ZM0.5 14.3571C0.5 17.1945 2.78597 19.5 5.6129 19.5V18.5C3.34435 18.5 1.5 16.6483 1.5 14.3571H0.5ZM5.6129 19.5C7.42504 19.5 9.01071 18.5493 9.91759 17.1258L9.07421 16.5885C8.34103 17.7393 7.06529 18.5 5.6129 18.5V19.5ZM9.4959 17.3571H14.5037V16.3571H9.4959V17.3571ZM14.0821 17.1259C14.9893 18.5493 16.5749 19.5 18.3871 19.5V18.5C16.9347 18.5 15.6589 17.7393 14.9254 16.5884L14.0821 17.1259ZM18.3871 19.5C21.214 19.5 23.5 17.1945 23.5 14.3571H22.5C22.5 16.6483 20.6556 18.5 18.3871 18.5V19.5ZM23.5 14.3571C23.5 11.5198 21.214 9.21429 18.3871 9.21429V10.2143C20.6556 10.2143 22.5 12.0659 22.5 14.3571H23.5ZM5.1129 11.5V17.2143H6.1129V11.5H5.1129ZM8.45161 13.8571H2.77419V14.8571H8.45161V13.8571ZM20.371 14.3536C20.371 15.4612 19.4797 16.3536 18.3871 16.3536V17.3536C20.0381 17.3536 21.371 16.0074 21.371 14.3536H20.371ZM18.3871 16.3536C17.2945 16.3536 16.4032 15.4612 16.4032 14.3536H15.4032C15.4032 16.0074 16.7361 17.3536 18.3871 17.3536V16.3536ZM16.4032 14.3536C16.4032 13.2459 17.2945 12.3536 18.3871 12.3536V11.3536C16.7361 11.3536 15.4032 12.6998 15.4032 14.3536H16.4032ZM18.3871 12.3536C19.4797 12.3536 20.371 13.2459 20.371 14.3536H21.371C21.371 12.6998 20.0381 11.3536 18.3871 11.3536V12.3536ZM17.8871 11.8571V16.8571H18.8871V11.8571H17.8871ZM20.871 13.8571H15.9032V14.8571H20.871V13.8571ZM12.5 9.71429V7.57143H11.5V9.71429H12.5ZM12 8.07143H16.9677V7.07143H12V8.07143ZM17.4677 7.57143V5.07143H16.4677V7.57143H17.4677ZM16.9677 4.57143H13.4194V5.57143H16.9677V4.57143ZM13.9194 5.07143V4H12.9194V5.07143H13.9194Z"
	fill="currentColor" />

<path d="M9.496 16.857v-.5h-.274l-.148.232.422.268Zm5.008 0 .421-.269-.147-.23h-.274v.5ZM12 7.571v-.5h-.5v.5h.5Zm4.968 0v.5h.5v-.5h-.5Zm0-2.5h.5v-.5h-.5v.5Zm-3.549 0h-.5v.5h.5v-.5Zm4.968 4.143H5.613v1h12.774v-1Zm-12.774 0C2.786 9.214.5 11.52.5 14.357h1c0-2.291 1.844-4.143 4.113-4.143v-1ZM.5 14.357c0 2.838 2.286 5.143 5.113 5.143v-1c-2.269 0-4.113-1.852-4.113-4.143h-1ZM5.613 19.5a5.1 5.1 0 0 0 4.305-2.374l-.844-.538A4.1 4.1 0 0 1 5.613 18.5v1Zm3.883-2.143h5.008v-1H9.496v1Zm4.586-.231a5.1 5.1 0 0 0 4.305 2.374v-1a4.1 4.1 0 0 1-3.462-1.912l-.843.538Zm4.305 2.374c2.827 0 5.113-2.305 5.113-5.143h-1c0 2.291-1.844 4.143-4.113 4.143v1Zm5.113-5.143c0-2.837-2.286-5.143-5.113-5.143v1c2.269 0 4.113 1.852 4.113 4.143h1ZM5.113 11.5v5.714h1V11.5h-1Zm3.339 2.357H2.774v1h5.678v-1Zm11.919.497c0 1.107-.891 2-1.984 2v1a2.992 2.992 0 0 0 2.984-3h-1Zm-1.984 2a1.992 1.992 0 0 1-1.984-2h-1c0 1.653 1.333 3 2.984 3v-1Zm-1.984-2c0-1.108.892-2 1.984-2v-1a2.992 2.992 0 0 0-2.984 3h1Zm1.984-2c1.093 0 1.984.892 1.984 2h1c0-1.654-1.333-3-2.984-3v1Zm-.5-.497v5h1v-5h-1Zm2.984 2h-4.968v1h4.968v-1ZM12.5 9.714V7.571h-1v2.143h1ZM12 8.071h4.968v-1H12v1Zm5.468-.5v-2.5h-1v2.5h1Zm-.5-3h-3.549v1h3.549v-1Zm-3.049.5V4h-1v1.071h1Z" fill="currentColor"/>
